public/svg/key-info-credit.svg

<svg width="75" height="75" viewBox="0 0 75 75" fill="none" xmlns="http://www.w3.org/2000/svg">
<g clip-path="url(#clip0_173_60184)">
<path d="M40.8135 58.0806C39.9236 58.0806 39.2021 58.802 39.2021 59.6919C39.2021 60.5818 39.9236 61.3032 40.8135 61.3032H40.8145C41.7044 61.3032 42.4254 60.5818 42.4254 59.6919C42.4254 58.802 41.7035 58.0806 40.8135 58.0806Z" fill="#21558A"/>
<path d="M34.1853 61.3032H34.1865C35.0764 61.3032 35.7972 60.5818 35.7972 59.6919C35.7972 58.802 35.0752 58.0806 34.1853 58.0806C33.2954 58.0806 32.574 58.802 32.574 59.6919C32.574 60.5818 33.2954 61.3032 34.1853 61.3032Z" fill="#21558A"/>
<path d="M40.8136 63.9683H34.1853C33.2954 63.9683 32.574 64.6897 32.574 65.5796C32.574 66.4695 33.2954 67.1909 34.1853 67.1909H40.8136C41.7035 67.1909 42.4249 66.4695 42.4249 65.5796C42.4249 64.6897 41.7036 63.9683 40.8136 63.9683Z" fill="#21558A"/>
<path d="M65.6553 40.4054C64.7654 40.4054 64.0439 41.1268 64.0439 42.0167C64.0439 42.9066 64.7654 43.6281 65.6553 43.6281H65.6564C66.5463 43.6281 67.2672 42.9066 67.2672 42.0167C67.2672 41.1268 66.5452 40.4054 65.6553 40.4054Z" fill="#21558A"/>
<path d="M59.0283 43.6281C59.9182 43.6281 60.639 42.9066 60.639 42.0167C60.639 41.1268 59.917 40.4054 59.0271 40.4054C58.1372 40.4054 57.4158 41.1268 57.4158 42.0167C57.4158 42.9066 58.1372 43.6281 59.0271 43.6281H59.0283Z" fill="#21558A"/>
<path d="M66.4609 45.7766C65.6902 45.3315 64.7047 45.5958 64.2598 46.3665C63.8655 47.0497 63.1301 47.4742 62.3411 47.4742C61.5522 47.4742 60.8171 47.0497 60.4225 46.3665C59.9773 45.5958 58.9918 45.3317 58.2213 45.7769C57.4506 46.2219 57.1868 47.2073 57.6317 47.9779C58.6001 49.655 60.4048 50.697 62.3411 50.697C64.278 50.697 66.0825 49.655 67.0506 47.9779C67.4956 47.207 67.2315 46.2216 66.4609 45.7766Z" fill="#21558A"/>
<path d="M15.9717 40.4054C15.0818 40.4054 14.3604 41.1268 14.3604 42.0167C14.3604 42.9066 15.0818 43.6281 15.9717 43.6281H15.9729C16.8627 43.6281 17.5836 42.9066 17.5836 42.0167C17.5836 41.1268 16.8617 40.4054 15.9717 40.4054Z" fill="#21558A"/>
<path d="M9.34351 43.6281H9.34453C10.2344 43.6281 10.9553 42.9066 10.9553 42.0167C10.9553 41.1268 10.2334 40.4054 9.34351 40.4054C8.45361 40.4054 7.73218 41.1268 7.73218 42.0167C7.73218 42.9066 8.45361 43.6281 9.34351 43.6281Z" fill="#21558A"/>
<path d="M12.6577 44.8284C10.7209 44.8284 8.91637 45.8703 7.94826 47.5474C7.50339 48.3181 7.7675 49.3036 8.538 49.7485C9.30881 50.1936 10.2942 49.9292 10.7391 49.1586C11.1334 48.4754 11.8688 48.0509 12.6577 48.0509C13.4467 48.0509 14.1819 48.4752 14.5764 49.1586C14.8748 49.6755 15.4163 49.9645 15.9734 49.9645C16.2466 49.9645 16.5237 49.8948 16.7775 49.7483C17.5481 49.3035 17.8121 48.3179 17.3672 47.5473C16.3991 45.8703 14.5945 44.8284 12.6577 44.8284Z" fill="#21558A"/>
<path d="M61.5525 9.96299C55.1279 3.53818 46.5859 0 37.5 0C28.414 0 19.872 3.53818 13.4474 9.96299C7.0227 16.3876 3.48438 24.9297 3.48438 34.0156C3.48438 34.6345 3.50151 35.2622 3.53564 35.8815C3.58428 36.7701 4.34468 37.4503 5.23281 37.4021C6.12139 37.3534 6.80225 36.5936 6.75347 35.705C6.7227 35.1442 6.70718 34.5759 6.70718 34.0156C6.70718 26.1044 9.70601 18.8805 14.6266 13.4209L21.7324 20.5267C18.6219 24.1575 16.7408 28.8709 16.7408 34.0156C16.7408 34.2555 16.745 34.4988 16.7534 34.7386C16.7835 35.6089 17.4987 36.294 18.3626 36.294C18.3815 36.294 18.4006 36.2937 18.4196 36.293C19.3089 36.2621 20.0049 35.516 19.974 34.6267C19.9669 34.4241 19.9634 34.2185 19.9634 34.0157C19.9634 24.346 27.8304 16.4791 37.5001 16.4791C47.1698 16.4791 55.0368 24.346 55.0368 34.0157C55.0368 34.1429 55.0353 34.27 55.0327 34.397C55.0133 35.2868 55.7191 36.0236 56.6087 36.0429C57.4981 36.0604 58.2353 35.3566 58.2544 34.4669C58.2577 34.3166 58.2594 34.1662 58.2594 34.0157C58.2594 28.8712 56.3783 24.1576 53.2678 20.5269L60.3735 13.4209C65.294 18.8805 68.2929 26.1044 68.2929 34.0156C68.2929 34.6846 68.2708 35.3615 68.2271 36.0271C68.1689 36.9151 68.8415 37.6822 69.7296 37.7404C69.7655 37.7427 69.8011 37.7439 69.8365 37.7439C70.6782 37.7439 71.3869 37.09 71.4429 36.2379C71.4911 35.5022 71.5155 34.7544 71.5155 34.0154C71.5155 24.9297 67.9773 16.3876 61.5525 9.96299ZM24.0111 18.2479L16.9053 11.142C21.9919 6.55767 28.6101 3.64131 35.8886 3.26426V13.3182C31.374 13.6664 27.2592 15.4652 24.0111 18.2479ZM39.1113 13.3182V3.26426C46.3898 3.64131 53.008 6.55752 58.0946 11.142L50.9888 18.2479C47.7408 15.4652 43.6261 13.6664 39.1113 13.3182Z" fill="black"/>
<path d="M37.5 39.3093C40.4189 39.3093 42.7938 36.9346 42.7938 34.0156C42.7938 32.3981 42.0644 30.9477 40.9174 29.9759L48.031 12.8023C48.3714 11.9801 47.9811 11.0376 47.159 10.6971C46.3368 10.3565 45.3941 10.7469 45.0536 11.5691L37.941 28.7403C37.7956 28.7283 37.6485 28.722 37.5 28.722C34.581 28.722 32.2063 31.0966 32.2063 34.0156C32.2064 36.9345 34.581 39.3093 37.5 39.3093ZM37.5 31.9446C38.6419 31.9446 39.5711 32.8736 39.5711 34.0156C39.5711 35.1575 38.6419 36.0866 37.5 36.0866C36.358 36.0866 35.429 35.1576 35.429 34.0156C35.4291 32.8736 36.358 31.9446 37.5 31.9446Z" fill="#21558A"/>
<path d="M37.5 49.6836C30.5203 49.6836 24.8418 55.3621 24.8418 62.3419C24.8418 69.3216 30.5203 75 37.5 75C44.4796 75 50.1581 69.3216 50.1581 62.3417C50.1581 55.3621 44.4798 49.6836 37.5 49.6836ZM37.5 71.7774C32.2971 71.7774 28.0645 67.5446 28.0645 62.3417C28.0645 57.1389 32.2973 52.9061 37.5 52.9061C42.7026 52.9061 46.9354 57.1389 46.9354 62.3417C46.9354 67.5446 42.7028 71.7774 37.5 71.7774Z" fill="#21558A"/>
<path d="M62.3419 32.0083C55.3622 32.0083 49.6836 37.6868 49.6836 44.6666C49.6836 51.6464 55.3622 57.3249 62.3419 57.3249C69.3216 57.3249 75 51.6464 75 44.6666C75 37.6868 69.3217 32.0083 62.3419 32.0083ZM62.3419 54.1022C57.1391 54.1022 52.9062 49.8694 52.9062 44.6666C52.9062 39.4638 57.1391 35.231 62.3419 35.231C67.5447 35.231 71.7774 39.4638 71.7774 44.6666C71.7774 49.8694 67.5447 54.1022 62.3419 54.1022Z" fill="#21558A"/>
<path d="M12.6583 32.0083C5.67861 32.0083 0 37.6868 0 44.6666C0 51.6464 5.67861 57.3249 12.6583 57.3249C19.638 57.3249 25.3165 51.6464 25.3165 44.6666C25.3165 37.6868 19.6381 32.0083 12.6583 32.0083ZM12.6583 54.1022C7.45562 54.1022 3.22266 49.8694 3.22266 44.6666C3.22266 39.4638 7.45547 35.231 12.6583 35.231C17.8611 35.231 22.0938 39.4638 22.0938 44.6666C22.0938 49.8694 17.8611 54.1022 12.6583 54.1022Z" fill="#21558A"/>
</g>
<defs>
<clipPath id="clip0_173_60184">
<rect width="75" height="75" fill="white"/>
</clipPath>
</defs>
</svg>

<svg xmlns="http://www.w3.org/2000/svg" width="75" height="75" fill="none"><g clip-path="url(#a)"><path fill="#21558A" d="M40.814 58.08a1.611 1.611 0 1 0 0 3.223 1.611 1.611 0 1 0 0-3.222M34.185 61.303h.002a1.61 1.61 0 1 0 .002-3.221 1.61 1.61 0 0 0-.004 3.221M40.814 63.968h-6.629a1.611 1.611 0 1 0 0 3.223h6.629a1.611 1.611 0 1 0 0-3.223M65.655 40.405a1.611 1.611 0 1 0 0 3.223h.001a1.611 1.611 0 1 0 0-3.223M59.028 43.628a1.61 1.61 0 1 0 .002-3.222 1.61 1.61 0 0 0-.003 3.222zM66.46 45.777a1.61 1.61 0 0 0-2.2.59 2.22 2.22 0 0 1-1.919 1.107 2.22 2.22 0 0 1-1.919-1.107 1.611 1.611 0 1 0-2.79 1.61 5.45 5.45 0 0 0 4.71 2.72 5.45 5.45 0 0 0 4.709-2.72c.445-.77.18-1.755-.59-2.2M15.972 40.405a1.611 1.611 0 1 0 0 3.223 1.61 1.61 0 1 0 0-3.223M9.344 43.628a1.61 1.61 0 1 0 .002-3.222 1.61 1.61 0 0 0-.002 3.222M12.658 44.828a5.45 5.45 0 0 0-4.71 2.72 1.612 1.612 0 0 0 2.791 1.61 2.22 2.22 0 0 1 1.919-1.107c.789 0 1.524.424 1.918 1.108a1.61 1.61 0 1 0 2.791-1.612 5.45 5.45 0 0 0-4.71-2.719"/><path fill="#000" d="M61.553 9.963C55.128 3.538 46.586 0 37.5 0S19.872 3.538 13.447 9.963C7.023 16.388 3.484 24.93 3.484 34.016c0 .619.018 1.246.052 1.866a1.612 1.612 0 0 0 3.217-.177c-.03-.56-.046-1.13-.046-1.69 0-7.91 2.999-15.134 7.92-20.594l7.105 7.106a20.67 20.67 0 0 0-4.979 14.212 1.611 1.611 0 1 0 3.221-.112q-.01-.306-.01-.611c0-9.67 7.866-17.537 17.536-17.537s17.537 7.867 17.537 17.537q0 .19-.004.381a1.611 1.611 0 1 0 3.221.07q.005-.225.005-.451a20.67 20.67 0 0 0-4.991-13.49l7.105-7.105c4.921 5.46 7.92 12.683 7.92 20.595 0 .669-.022 1.346-.066 2.011a1.611 1.611 0 1 0 3.216.21c.048-.735.073-1.483.073-2.222 0-9.085-3.539-17.627-9.964-24.052M24.01 18.248l-7.106-7.106c5.087-4.584 11.705-7.5 18.984-7.878v10.054a20.67 20.67 0 0 0-11.878 4.93m15.1-4.93V3.264c7.279.377 13.897 3.294 18.984 7.878l-7.106 7.106a20.67 20.67 0 0 0-11.878-4.93"/><path fill="#21558A" d="M37.5 39.31a5.3 5.3 0 0 0 5.294-5.294c0-1.618-.73-3.068-1.877-4.04l7.114-17.174a1.611 1.611 0 0 0-2.977-1.233L37.94 28.74a5.3 5.3 0 0 0-5.735 5.275A5.3 5.3 0 0 0 37.5 39.31m0-7.365c1.142 0 2.071.929 2.071 2.07 0 1.142-.93 2.072-2.071 2.072a2.073 2.073 0 0 1-2.071-2.071c0-1.142.929-2.071 2.071-2.071M37.5 49.684c-6.98 0-12.658 5.678-12.658 12.658S30.52 75 37.5 75s12.658-5.678 12.658-12.658S44.48 49.684 37.5 49.684m0 22.093c-5.203 0-9.436-4.232-9.436-9.435s4.233-9.436 9.436-9.436 9.435 4.233 9.435 9.436-4.232 9.435-9.435 9.435M62.342 32.008c-6.98 0-12.658 5.679-12.658 12.659s5.678 12.658 12.658 12.658S75 51.646 75 44.667c0-6.98-5.678-12.659-12.658-12.659m0 22.094c-5.203 0-9.436-4.233-9.436-9.435s4.233-9.436 9.436-9.436 9.435 4.233 9.435 9.436c0 5.202-4.232 9.435-9.435 9.435M12.658 32.008C5.678 32.008 0 37.687 0 44.667s5.679 12.658 12.658 12.658c6.98 0 12.659-5.679 12.659-12.658 0-6.98-5.679-12.659-12.659-12.659m0 22.094c-5.202 0-9.435-4.233-9.435-9.435s4.232-9.436 9.435-9.436 9.436 4.233 9.436 9.436c0 5.202-4.233 9.435-9.436 9.435"/></g><defs><clipPath id="a"><path fill="#fff" d="M0 0h75v75H0z"/></clipPath></defs></svg>
